www/assets/icons/request_page.svg

<svg xmlns="http://www.w3.org/2000/svg" width="24" height="24" viewBox="0 0 24 24" fill='currentColor'><path d="M14 2H6c-1.1 0-2 .9-2 2v16c0 1.1.9 2 2 2h12c1.1 0 2-.9 2-2V8zm1 9h-4v1h3c.55 0 1 .45 1 1v3c0 .55-.45 1-1 1h-1v1h-2v-1H9v-2h4v-1h-3c-.55 0-1-.45-1-1v-3c0-.55.45-1 1-1h1V8h2v1h2z"/></svg>

<svg width="24" height="24" viewBox="0 0 24 24" xmlns="http://www.w3.org/2000/svg" fill='currentColor'><path d="M14 2H6C4.9 2 4 2.9 4 4V20C4 21.1 4.9 22 6 22H18C19.1 22 20 21.1 20 20V8L14 2ZM15 11H11V12H14C14.55 12 15 12.45 15 13V16C15 16.55 14.55 17 14 17H13V18H11V17H9V15H13V14H10C9.45 14 9 13.55 9 13V10C9 9.45 9.45 9 10 9H11V8H13V9H15V11Z"/></svg>
